source/img/icon-mail.svg

<svg width="18" height="14" viewBox="0 0 18 14" fill="none" xmlns="http://www.w3.org/2000/svg">
<path opacity="0.3" d="M15.8636 0H2.13645C0.958418 0 0 0.942524 0 2.10101V11.899C0 13.0575 0.958418 14 2.13645 14H15.8636C17.0416 14 18 13.0575 18 11.899V2.10101C18 0.942524 17.0416 0 15.8636 0ZM15.8636 12.1451H2.13645C1.96328 12.1451 1.81141 12.0301 1.81141 11.899V3.39664L8.01984 8.76409C8.14712 8.87417 8.30898 8.93476 8.47564 8.93476L9.52417 8.93481C9.69074 8.93481 9.85269 8.87417 9.98002 8.76409L16.1887 3.39645V11.8991C16.1886 12.0301 16.0367 12.1451 15.8636 12.1451ZM9.00002 7.09303L2.96155 1.85485H15.0385L9.00002 7.09303Z" fill="black"/>
</svg>

<svg width="18" height="14" fill="none" xmlns="http://www.w3.org/2000/svg"><path opacity=".3" d="M15.864 0H2.136C.958 0 0 .943 0 2.101v9.798C0 13.058.958 14 2.136 14h13.728C17.042 14 18 13.057 18 11.899V2.101C18 .943 17.042 0 15.864 0zm0 12.145H2.136c-.173 0-.325-.115-.325-.246V3.397L8.02 8.764c.127.11.289.17.456.17h1.048c.167 0 .329-.06.456-.17l6.209-5.368V11.9c0 .131-.152.246-.325.246zM9 7.093L2.962 1.855h12.076L9 7.093z"/></svg>
